X: 13
T: Banshee, The
C: James McMahon
Z: shanachie
S: https://thesession.org/tunes/8#setting42570
R: reel
M: 4/4
L: 1/8
K: Gmaj
G3D EDB,D|GFGB d2 Bd|eged BAGA|BAGE EDDE|
G2 GD EDB,D|GFGB d2 Bd|eged BAGA|1 BAGE EDDE:|2 BAGE ED D2||
eaag efge|dBBA B2 Bd|eB B2 egfg|eBBA B2 Bd|
eaag efge|dBBA B2 Bd|eged BAGA|BAGE EDD2|
a2ag efge|dBBA B2 Bd|eB B2 gBfB|eBBA B2 Bd|
eaag efge|dBBA B2 Bd|eged BAGA|BAGE EDDE||

